; Generated by Kiri:Moto 3.0.D26
; Mon Sep 27 2021 07:38:59 GMT+0200 (Central European Summer Time)
; Bed left:0 right:220 top:220 bottom:0
; Bed type: fixed
; Target: internal
; --- process ---
; processName = CR30 PETG
; sliceHeight = 0.2
; sliceShells = 3
; sliceShellOrder = in-out
; sliceLayerStart = last
; sliceLineWidth = 0
; sliceFillAngle = 45
; sliceFillWidth = 1
; sliceFillOverlap = 0.3
; sliceFillSparse = 0.2
; sliceFillRepeat = 1
; sliceFillRate = 0
; sliceFillType = hex
; sliceSupportDensity = 0.25
; sliceSupportOffset = 0.4
; sliceSupportGap = 0
; sliceSupportSize = 6
; sliceSupportArea = 0.25
; sliceSupportSpan = 5
; sliceSupportExtra = 0
; sliceSupportAngle = 1
; sliceSupportNozzle = 0
; sliceSupportEnable = false
; sliceSupportOutline = true
; sliceSolidMinArea = 15
; sliceSolidLayers = 3
; sliceBottomLayers = 3
; sliceTopLayers = 3
; firstSliceHeight = 0.25
; firstLayerRate = 10
; firstLayerFillRate = 35
; firstLayerPrintMult = 1
; firstLayerLineMult = 1
; firstLayerYOffset = 0
; firstLayerNozzleTemp = 0
; firstLayerBedTemp = 0
; firstLayerBrim = 0
; firstLayerBrimIn = 0
; firstLayerBrimTrig = 0
; firstLayerBrimComb = 0
; firstLayerBrimGap = 0
; firstLayerBeltLead = 0
; firstLayerBeltBump = 0
; firstLayerFanSpeed = 0
; firstLayerFlatten = 0
; outputRaft = false
; outputRaftSpacing = 0.2
; outputTemp = 240
; outputBedTemp = 70
; outputFeedrate = 30
; outputFinishrate = 30
; outputSeekrate = 80
; outputShellMult = 1.15
; outputFillMult = 1.15
; outputSparseMult = 1.15
; outputFanSpeed = 0
; outputRetractDist = 6
; outputRetractSpeed = 70
; outputRetractWipe = 0
; outputRetractDwell = 0
; outputBrimCount = 2
; outputBrimOffset = 2
; outputShortPoly = 50
; outputMinSpeed = 5
; outputCoastDist = 0.1
; outputPurgeTower = true
; outputBeltFirst = false
; outputLayerRetract = false
; outputOriginCenter = false
; outputLoops = 0
; outputInvertX = false
; outputInvertY = false
; detectThinWalls = false
; sliceMinHeight = 0
; sliceAdaptive = false
; zHopDistance = 0
; arcTolerance = 0
; antiBacklash = 0
; gcodePauseLayers = 
; ranges = 
; sliceSkirtCount = 0
; sliceSkirtOffset = 2
; outputLoopLayers = null
; gcodePause = 
; --- startup ---
G28 XY             ; home XY axes
G1 Y50 F1000       ; lift y axis off belt for heating
M107               ; turn off filament cooling fan
M140 S70           ; set bed temp
M104 S240          ; set hot end temp
M105               ; report temps
M190 S70           ; wait for bed
M105               ; report temps
M109 S240          ; wait for hot end
M82                ; absolute extrusion mode
G90                ; absolute positioning mode
G21                ; use metric values
G92 E0             ; reset filament position
G1 Y0.15           ; move head to belt
G1 X200 E50 F800   ; extruder purge line
G1 Z0.3            ; shift belt away 0.3mm
G1 X0 E100         ; extruder purge line
G92 Z0 E0          ; reset bed + extruder position
M117 CR-30 Printing...

; set temperatures
M104 S240 T0             ; set extruder temperature
M140 S70 T0              ; set bed temperature
M190 S70 T0              ; wait bed temperature
M109 S240 T0             ; wait extruder temperature
G92 E0
G1 E-6.0000 F4200 ; e-retract 6
;LAYER:0
M106 S0
G1 Z0.2550 F4800
G1 X122.2000 Y97.8000
G1 E0.0000 F4200 ; e-engage 6
G1 X97.8000 E0.9162 F600
G1 Y122.2000 E1.8325
G1 X122.2000 E2.7487
G1 Y97.8000 E3.6650
G1 X122.6000 Y97.4000 F4800
G1 X97.4000 E4.6113 F600
G1 Y122.6000 E5.5576
G1 X122.6000 E6.5038
G1 Y97.4000 E7.4501
G1 E1.4501 F4200 ; e-retract 6
G1 X119.0000 Y101.0000 F4800
G1 E7.4501 F4200 ; e-engage 6
G1 X101.0000 E8.1260 F600
G1 Y119.0000 E8.8020
G1 X119.0000 E9.4779
G1 Y101.0000 E10.1538
G1 X119.4000 Y100.6000 F4800
G1 X100.6000 E10.8598 F600
G1 Y119.4000 E11.5657
G1 X119.4000 E12.2717
G1 Y100.6000 E12.9776
G1 X119.8000 Y100.2000 F4800
G1 X100.2000 E13.7136 F600
G1 Y119.8000 E14.4496
G1 X119.8000 E15.1856
G1 Y100.2000 E15.9216
G1 X118.7200 Y101.8457 F4800
G1 X118.1543 Y101.2800 E15.9517 F2100
G1 X117.5886 E15.9729
G1 X118.7200 Y102.4114 E16.0330
G1 Y102.9771 E16.0542
G1 X117.0229 Y101.2800 E16.1444
G1 X116.4573 E16.1656
G1 X118.7200 Y103.5427 E16.2858
G1 Y104.1084 E16.3070
G1 X115.8916 Y101.2800 E16.4572
G1 X115.3259 E16.4785
G1 X118.7200 Y104.6741 E16.6587
G1 Y105.2398 E16.6799
G1 X114.7602 Y101.2800 E16.8902
G1 X114.1945 E16.9115
G1 X118.7200 Y105.8055 E17.1518
G1 Y106.3712 E17.1730
G1 X113.6288 Y101.2800 E17.4434
G1 X113.0631 E17.4646
G1 X118.7200 Y106.9369 E17.7651
G1 Y107.5025 E17.7863
G1 X112.4975 Y101.2800 E18.1167
G1 X111.9318 E18.1380
G1 X118.7200 Y108.0682 E18.4985
G1 Y108.6339 E18.5197
G1 X111.3661 Y101.2800 E18.9103
G1 X110.8004 E18.9315
G1 X118.7200 Y109.1996 E19.3521
G1 Y109.7653 E19.3733
G1 X110.2347 Y101.2800 E19.8239
G1 X109.6690 E19.8452
G1 X118.7200 Y110.3310 E20.3258
G1 Y110.8966 E20.3471
G1 X109.1033 Y101.2800 E20.8578
G1 X108.5377 E20.8790
G1 X118.7200 Y111.4623 E21.4197
G1 Y112.0280 E21.4410
G1 X107.9720 Y101.2800 E22.0117
G1 X107.4063 E22.0330
G1 X118.7200 Y112.5937 E22.6338
G1 Y113.1594 E22.6550
G1 X106.8406 Y101.2800 E23.2859
G1 X106.2749 E23.3071
G1 X118.7200 Y113.7251 E23.9680
G1 Y114.2908 E23.9893
G1 X105.7092 Y101.2800 E24.6802
G1 X105.1435 E24.7015
G1 X118.7200 Y114.8564 E25.4224
G1 Y115.4221 E25.4437
G1 X104.5779 Y101.2800 E26.1947
G1 X104.0122 E26.2159
G1 X118.7200 Y115.9878 E26.9970
G1 Y116.5535 E27.0183
G1 X103.4465 Y101.2800 E27.8294
G1 X102.8808 E27.8506
G1 X118.7200 Y117.1192 E28.6917
G1 Y117.6849 E28.7130
G1 X102.3151 Y101.2800 E29.5842
G1 X101.7494 E29.6054
G1 X118.7200 Y118.2506 E30.5066
G1 X118.6237 Y118.7200 E30.5246
G1 X101.2800 Y101.3762 E31.4457
G1 Y101.9419 E31.4669
G1 X118.0581 Y118.7200 E32.3579
G1 X117.4924 E32.3792
G1 X101.2800 Y102.5076 E33.2401
G1 Y103.0733 E33.2614
G1 X116.9267 Y118.7200 E34.0923
G1 X116.3610 E34.1135
G1 X101.2800 Y103.6390 E34.9144
G1 Y104.2047 E34.9356
G1 X115.7953 Y118.7200 E35.7065
G1 X115.2296 E35.7277
G1 X101.2800 Y104.7704 E36.4685
G1 Y105.3361 E36.4898
G1 X114.6639 Y118.7200 E37.2005
G1 X114.0983 E37.2218
G1 X101.2800 Y105.9017 E37.9025
G1 Y106.4674 E37.9237
G1 X113.5326 Y118.7200 E38.5744
G1 X112.9669 E38.5956
G1 X101.2800 Y107.0331 E39.2163
G1 Y107.5988 E39.2375
G1 X112.4012 Y118.7200 E39.8281
G1 X111.8355 E39.8494
G1 X101.2800 Y108.1645 E40.4099
G1 Y108.7302 E40.4311
G1 X111.2698 Y118.7200 E40.9617
G1 X110.7042 E40.9829
G1 X101.2800 Y109.2958 E41.4834
G1 Y109.8615 E41.5046
G1 X110.1385 Y118.7200 E41.9750
G1 X109.5728 E41.9963
G1 X101.2800 Y110.4272 E42.4367
G1 Y110.9929 E42.4579
G1 X109.0071 Y118.7200 E42.8683
G1 X108.4414 E42.8895
G1 X101.2800 Y111.5586 E43.2698
G1 Y112.1243 E43.2911
G1 X107.8757 Y118.7200 E43.6413
G1 X107.3100 E43.6626
G1 X101.2800 Y112.6900 E43.9828
G1 Y113.2556 E44.0040
G1 X106.7444 Y118.7200 E44.2942
G1 X106.1787 E44.3155
G1 X101.2800 Y113.8213 E44.5756
G1 Y114.3870 E44.5969
G1 X105.6130 Y118.7200 E44.8270
G1 X105.0473 E44.8482
G1 X101.2800 Y114.9527 E45.0483
G1 Y115.5184 E45.0695
G1 X104.4816 Y118.7200 E45.2395
G1 X103.9159 E45.2608
G1 X101.2800 Y116.0841 E45.4007
G1 Y116.6497 E45.4220
G1 X103.3502 Y118.7200 E45.5319
G1 X102.7846 E45.5532
G1 X101.2800 Y117.2154 E45.6331
G1 Y117.7811 E45.6543
G1 X102.2189 Y118.7200 E45.7042
G1 X101.4666 Y118.5334 E45.7333
;LAYER:1
G1 Z0.4500 F4800
G1 X101.0000 Y119.0000
G1 X119.0000 E46.2740 F1800
G1 Y101.0000 E46.8147
G1 X101.0000 E47.3555
G1 Y118.9000 E47.8932
G1 Y119.0000 F4800
G1 X100.6000 Y119.4000
G1 X119.4000 E48.4580 F1800
G1 Y100.6000 E49.0227
G1 X100.6000 E49.5875
G1 Y119.3000 E50.1493
G1 Y119.4000 F4800
G1 X100.2000 Y119.8000
G1 X119.8000 E50.7381 F1800
G1 Y100.2000 E51.3269
G1 X100.2000 E51.9157
G1 Y119.7000 E52.5015
G1 Y119.8000 F4800
G1 X101.8457 Y101.2800
G1 X101.2800 Y101.8457 E52.5255 F1800
G1 Y102.4114 E52.5425
G1 X102.4114 Y101.2800 E52.5906
G1 X102.9771 E52.6076
G1 X101.2800 Y102.9771 E52.6797
G1 Y103.5427 E52.6967
G1 X103.5427 Y101.2800 E52.7928
G1 X104.1084 E52.8098
G1 X101.2800 Y104.1084 E52.9299
G1 Y104.6741 E52.9469
G1 X104.6741 Y101.2800 E53.0911
G1 X105.2398 E53.1081
G1 X101.2800 Y105.2398 E53.2764
G1 Y105.8055 E53.2933
G1 X105.8055 Y101.2800 E53.4856
G1 X106.3712 E53.5026
G1 X101.2800 Y106.3712 E53.7189
G1 Y106.9369 E53.7359
G1 X106.9369 Y101.2800 E53.9762
G1 X107.5025 E53.9932
G1 X101.2800 Y107.5025 E54.2576
G1 Y108.0682 E54.2746
G1 X108.0682 Y101.2800 E54.5630
G1 X108.6339 E54.5799
G1 X101.2800 Y108.6339 E54.8924
G1 Y109.1996 E54.9094
G1 X109.1996 Y101.2800 E55.2458
G1 X109.7653 E55.2628
G1 X101.2800 Y109.7653 E55.6233
G1 Y110.3310 E55.6403
G1 X110.3310 Y101.2800 E56.0248
G1 X110.8967 E56.0418
G1 X101.2800 Y110.8966 E56.4504
G1 Y111.4623 E56.4674
G1 X111.4623 Y101.2800 E56.9000
G1 X112.0280 E56.9169
G1 X101.2800 Y112.0280 E57.3736
G1 Y112.5937 E57.3906
G1 X112.5937 Y101.2800 E57.8712
G1 X113.1594 E57.8882
G1 X101.2800 Y113.1594 E58.3929
G1 Y113.7251 E58.4099
G1 X113.7251 Y101.2800 E58.9386
G1 X114.2908 E58.9556
G1 X101.2800 Y114.2908 E59.5083
G1 Y114.8564 E59.5253
G1 X114.8565 Y101.2800 E60.1021
G1 X115.4221 E60.1191
G1 X101.2800 Y115.4221 E60.7199
G1 Y115.9878 E60.7369
G1 X115.9878 Y101.2800 E61.3618
G1 X116.5535 E61.3788
G1 X101.2800 Y116.5535 E62.0277
G1 Y117.1192 E62.0446
G1 X117.1192 Y101.2800 E62.7176
G1 X117.6849 E62.7346
G1 X101.2800 Y117.6849 E63.4315
G1 Y118.2506 E63.4485
G1 X118.2506 Y101.2800 E64.1695
G1 X118.7200 Y101.3762 E64.1839
G1 X101.3763 Y118.7200 E64.9207
G1 X101.9419 E64.9377
G1 X118.7200 Y101.9419 E65.6505
G1 Y102.5076 E65.6675
G1 X102.5076 Y118.7200 E66.3563
G1 X103.0733 E66.3733
G1 X118.7200 Y103.0733 E67.0380
G1 Y103.6390 E67.0550
G1 X103.6390 Y118.7200 E67.6957
G1 X104.2047 E67.7127
G1 X118.7200 Y104.2047 E68.3294
G1 Y104.7704 E68.3463
G1 X104.7704 Y118.7200 E68.9390
G1 X105.3361 E68.9560
G1 X118.7200 Y105.3361 E69.5246
G1 Y105.9017 E69.5416
G1 X105.9017 Y118.7200 E70.0862
G1 X106.4674 E70.1031
G1 X118.7200 Y106.4674 E70.6237
G1 Y107.0331 E70.6407
G1 X107.0331 Y118.7200 E71.1372
G1 X107.5988 E71.1542
G1 X118.7200 Y107.5988 E71.6267
G1 Y108.1645 E71.6436
G1 X108.1645 Y118.7200 E72.0921
G1 X108.7302 E72.1091
G1 X118.7200 Y108.7302 E72.5335
G1 Y109.2958 E72.5505
G1 X109.2958 Y118.7200 E72.9509
G1 X109.8615 E72.9679
G1 X118.7200 Y109.8615 E73.3442
G1 Y110.4272 E73.3612
G1 X110.4272 Y118.7200 E73.7135
G1 X110.9929 E73.7305
G1 X118.7200 Y110.9929 E74.0588
G1 Y111.5586 E74.0758
G1 X111.5586 Y118.7200 E74.3800
G1 X112.1243 E74.3970
G1 X118.7200 Y112.1243 E74.6772
G1 Y112.6900 E74.6942
G1 X112.6900 Y118.7200 E74.9504
G1 X113.2556 E74.9674
G1 X118.7200 Y113.2556 E75.1995
G1 Y113.8213 E75.2165
G1 X113.8213 Y118.7200 E75.4247
G1 X114.3870 E75.4416
G1 X118.7200 Y114.3870 E75.6257
G1 Y114.9527 E75.6427
G1 X114.9527 Y118.7200 E75.8028
G1 X115.5184 E75.8198
G1 X118.7200 Y115.5184 E75.9558
G1 Y116.0841 E75.9728
G1 X116.0841 Y118.7200 E76.0848
G1 X116.6498 E76.1018
G1 X118.7200 Y116.6497 E76.1897
G1 Y117.2154 E76.2067
G1 X117.2154 Y118.7200 E76.2706
G1 X117.7811 E76.2876
G1 X118.7200 Y117.7811 E76.3275
G1 X118.5334 Y118.5334 E76.3508
;LAYER:2
G1 Z0.6500 F4800
G1 X119.0000 Y119.0000
G1 Y101.0000 E76.8915 F1800
G1 X101.0000 E77.4323
G1 Y119.0000 E77.9730
G1 X118.9000 E78.5107
G1 X119.0000 F4800
G1 X119.4000 Y119.4000
G1 Y100.6000 E79.0755 F1800
G1 X100.6000 E79.6403
G1 Y119.4000 E80.2050
G1 X119.3000 E80.7668
G1 X119.4000 F4800
G1 X119.8000 Y119.8000
G1 Y100.2000 E81.3556 F1800
G1 X100.2000 E81.9444
G1 Y119.8000 E82.5332
G1 X119.7000 E83.1190
G1 X119.8000 F4800
G1 X118.7200 Y101.8457
G1 X118.1543 Y101.2800 E83.1430 F1800
G1 X117.5886 E83.1600
G1 X118.7200 Y102.4114 E83.2081
G1 Y102.9771 E83.2251
G1 X117.0229 Y101.2800 E83.2972
G1 X116.4573 E83.3142
G1 X118.7200 Y103.5427 E83.4103
G1 Y104.1084 E83.4273
G1 X115.8916 Y101.2800 E83.5475
G1 X115.3259 E83.5644
G1 X118.7200 Y104.6741 E83.7086
G1 Y105.2398 E83.7256
G1 X114.7602 Y101.2800 E83.8939
G1 X114.1945 E83.9109
G1 X118.7200 Y105.8055 E84.1031
G1 Y106.3712 E84.1201
G1 X113.6288 Y101.2800 E84.3364
G1 X113.0631 E84.3534
G1 X118.7200 Y106.9369 E84.5937
G1 Y107.5025 E84.6107
G1 X112.4975 Y101.2800 E84.8751
G1 X111.9318 E84.8921
G1 X118.7200 Y108.0682 E85.1805
G1 Y108.6339 E85.1975
G1 X111.3661 Y101.2800 E85.5099
G1 X110.8004 E85.5269
G1 X118.7200 Y109.1996 E85.8633
G1 Y109.7653 E85.8803
G1 X110.2347 Y101.2800 E86.2408
G1 X109.6690 E86.2578
G1 X118.7200 Y110.3310 E86.6423
G1 Y110.8966 E86.6593
G1 X109.1033 Y101.2800 E87.0679
G1 X108.5377 E87.0849
G1 X118.7200 Y111.4623 E87.5175
G1 Y112.0280 E87.5345
G1 X107.9720 Y101.2800 E87.9911
G1 X107.4063 E88.0081
G1 X118.7200 Y112.5937 E88.4887
G1 Y113.1594 E88.5057
G1 X106.8406 Y101.2800 E89.0104
G1 X106.2749 E89.0274
G1 X118.7200 Y113.7251 E89.5561
G1 Y114.2908 E89.5731
G1 X105.7092 Y101.2800 E90.1259
G1 X105.1435 E90.1429
G1 X118.7200 Y114.8564 E90.7196
G1 Y115.4221 E90.7366
G1 X104.5779 Y101.2800 E91.3374
G1 X104.0122 E91.3544
G1 X118.7200 Y115.9878 E91.9793
G1 Y116.5535 E91.9963
G1 X103.4465 Y101.2800 E92.6452
G1 X102.8808 E92.6622
G1 X118.7200 Y117.1192 E93.3351
G1 Y117.6849 E93.3521
G1 X102.3151 Y101.2800 E94.0490
G1 X101.7494 E94.0660
G1 X118.7200 Y118.2506 E94.7870
G1 X118.6237 Y118.7200 E94.8014
G1 X101.2800 Y101.3762 E95.5382
G1 Y101.9419 E95.5552
G1 X118.0581 Y118.7200 E96.2680
G1 X117.4924 E96.2850
G1 X101.2800 Y102.5076 E96.9738
G1 Y103.0733 E96.9908
G1 X116.9267 Y118.7200 E97.6555
G1 X116.3610 E97.6725
G1 X101.2800 Y103.6390 E98.3132
G1 Y104.2047 E98.3302
G1 X115.7953 Y118.7200 E98.9469
G1 X115.2296 E98.9639
G1 X101.2800 Y104.7704 E99.5565
G1 Y105.3361 E99.5735
G1 X114.6639 Y118.7200 E100.1421
G1 X114.0983 E100.1591
G1 X101.2800 Y105.9017 E100.7037
G1 Y106.4674 E100.7207
G1 X113.5326 Y118.7200 E101.2412
G1 X112.9669 E101.2582
G1 X101.2800 Y107.0331 E101.7547
G1 Y107.5988 E101.7717
G1 X112.4012 Y118.7200 E102.2442
G1 X111.8355 E102.2612
G1 X101.2800 Y108.1645 E102.7096
G1 Y108.7302 E102.7266
G1 X111.2698 Y118.7200 E103.1510
G1 X110.7042 E103.1680
G1 X101.2800 Y109.2958 E103.5684
G1 Y109.8615 E103.5854
G1 X110.1385 Y118.7200 E103.9617
G1 X109.5728 E103.9787
G1 X101.2800 Y110.4272 E104.3310
G1 Y110.9929 E104.3480
G1 X109.0071 Y118.7200 E104.6763
G1 X108.4414 E104.6933
G1 X101.2800 Y111.5586 E104.9975
G1 Y112.1243 E105.0145
G1 X107.8757 Y118.7200 E105.2947
G1 X107.3100 E105.3117
G1 X101.2800 Y112.6900 E105.5679
G1 Y113.2556 E105.5849
G1 X106.7444 Y118.7200 E105.8171
G1 X106.1787 E105.8341
G1 X101.2800 Y113.8213 E106.0422
G1 Y114.3870 E106.0592
G1 X105.6130 Y118.7200 E106.2432
G1 X105.0473 E106.2602
G1 X101.2800 Y114.9527 E106.4203
G1 Y115.5184 E106.4373
G1 X104.4816 Y118.7200 E106.5733
G1 X103.9159 E106.5903
G1 X101.2800 Y116.0841 E106.7023
G1 Y116.6497 E106.7193
G1 X103.3502 Y118.7200 E106.8072
G1 X102.7846 E106.8242
G1 X101.2800 Y117.2154 E106.8881
G1 Y117.7811 E106.9051
G1 X102.2189 Y118.7200 E106.9450
G1 X101.4666 Y118.5334 E106.9683
;LAYER:3
G1 Z0.8500 F4800
G1 X101.0000 Y119.0000
G1 X119.0000 E107.5090 F1800
G1 Y101.0000 E108.0498
G1 X101.0000 E108.5905
G1 Y118.9000 E109.1282
G1 Y119.0000 F4800
G1 X100.6000 Y119.4000
G1 X119.4000 E109.6930 F1800
G1 Y100.6000 E110.2578
G1 X100.6000 E110.8225
G1 Y119.3000 E111.3843
G1 Y119.4000 F4800
G1 X100.2000 Y119.8000
G1 X119.8000 E111.9731 F1800
G1 Y100.2000 E112.5619
G1 X100.2000 E113.1507
G1 Y119.7000 E113.7365
G1 Y119.8000 F4800
G1 X102.0121 Y118.7200
G1 Y118.0000 E113.7581 F1800
G1 X101.2800 Y117.5773 E113.7835
G1 Y116.4227 F4800
G1 X102.0121 Y116.0000 E113.8089 F1800
G1 Y115.0000 E113.8390
G1 X101.2800 Y114.5773 E113.8644
G1 Y113.4227 F4800
G1 X102.0121 Y113.0000 E113.8897 F1800
G1 Y112.0000 E113.9198
G1 X101.2800 Y111.5773 E113.9452
G1 Y110.4227 F4800
G1 X102.0121 Y110.0000 E113.9706 F1800
G1 Y109.0000 E114.0006
G1 X101.2800 Y108.5773 E114.0260
G1 Y107.4227 F4800
G1 X102.0121 Y107.0000 E114.0514 F1800
G1 Y106.0000 E114.0814
G1 X101.2800 Y105.5773 E114.1068
G1 Y104.4227 F4800
G1 X102.0121 Y104.0000 E114.1322 F1800
G1 Y103.0000 E114.1623
G1 X101.2800 Y102.5773 E114.1877
G1 Y101.4227 F4800
G1 X101.5271 Y101.2800 E114.1962 F1800
G1 X102.7770 F4800
G1 X103.1581 Y101.5000 E114.2095 F1800
G1 Y102.5000 E114.2395
G1 X102.2921 Y103.0000 E114.2695
