; Generated by Kiri:Moto 3.0.D19
; Wed Sep 01 2021 10:02:59 GMT+0200 (Central European Summer Time)
; Bed left:0 right:220 top:220 bottom:0
; Bed type: fixed
; Target: internal
; --- process ---
; processName = generic
; sliceHeight = 0.25
; sliceShells = 3
; sliceShellOrder = in-out
; sliceLayerStart = last
; sliceLineWidth = 0
; sliceFillAngle = 45
; sliceFillWidth = 1
; sliceFillOverlap = 0.3
; sliceFillSparse = 0.2
; sliceFillRepeat = 1
; sliceFillRate = 0
; sliceFillType = gyroid
; sliceSupportDensity = 0.25
; sliceSupportOffset = 0.4
; sliceSupportGap = 1
; sliceSupportSize = 6
; sliceSupportArea = 1
; sliceSupportSpan = 5
; sliceSupportExtra = 0
; sliceSupportAngle = 50
; sliceSupportNozzle = 0
; sliceSupportEnable = false
; sliceSupportOutline = true
; sliceSolidMinArea = 10
; sliceSolidLayers = 3
; sliceBottomLayers = 3
; sliceTopLayers = 3
; firstSliceHeight = 0.25
; firstLayerRate = 10
; firstLayerFillRate = 35
; firstLayerPrintMult = 1.15
; firstLayerLineMult = 1
; firstLayerYOffset = 0
; firstLayerNozzleTemp = 0
; firstLayerBedTemp = 0
; firstLayerBrim = 0
; firstLayerBrimIn = 0
; firstLayerBrimTrig = 0
; firstLayerBrimComb = 0
; firstLayerBrimGap = 0
; firstLayerBeltLead = 3
; firstLayerBeltBump = 0
; firstLayerFanSpeed = 0
; outputRaft = false
; outputRaftSpacing = 0.2
; outputTemp = 210
; outputBedTemp = 60
; outputFeedrate = 50
; outputFinishrate = 50
; outputSeekrate = 80
; outputShellMult = 1.25
; outputFillMult = 1.25
; outputSparseMult = 1.25
; outputFanSpeed = 255
; outputRetractDist = 4
; outputRetractSpeed = 30
; outputRetractWipe = 0
; outputRetractDwell = 30
; outputBrimCount = 2
; outputBrimOffset = 2
; outputShortPoly = 100
; outputMinSpeed = 10
; outputCoastDist = 0.1
; outputPurgeTower = true
; outputBeltFirst = false
; outputLayerRetract = true
; outputOriginCenter = false
; outputLoops = 0
; outputInvertX = false
; outputInvertY = false
; detectThinWalls = true
; sliceMinHeight = 0
; sliceAdaptive = false
; zHopDistance = 0
; arcTolerance = 0
; antiBacklash = 0
; gcodePauseLayers = 
; ranges = 
; sliceSkirtCount = 0
; sliceSkirtOffset = 2
; outputLoopLayers = null
; gcodePause = 
; --- startup ---
M107                     ; turn off filament cooling fan
G90                      ; set absolute positioning mode
M82                      ; set absolute positioning for extruder
M104 S210 T0             ; set extruder temperature
M140 S60 T0              ; set bed temperature
G28                      ; home axes
G92 X0 Y0 Z0 E0          ; reset all axes positions
G1 X0 Y0 Z0.25 F180      ; move XY to 0,0 and Z 0.25mm over bed
G92 E0                   ; zero the extruded
M190 S60 T0              ; wait for bed to reach target temp
M109 S210 T0             ; wait for extruder to reach target temp
G92 E0                   ; zero the extruded
G1 F225                  ; set feed speed

; set temperatures
M104 S210 T0             ; set extruder temperature
M140 S60 T0              ; set bed temperature
M190 S60 T0              ; wait bed temperature
M109 S210 T0             ; wait extruder temperature
G92 E0
G1 E-4.0000 F1800 ; e-retract 4
;LAYER:0
M106 S0
G1 Z0.2550 F4800
G1 X122.2000 Y97.8000
G1 E0.0000 F1800 ; e-engage 4
G4 P30
G1 X97.8000 E0.9959 F600
G1 Y122.2000 E1.9918
G1 X122.2000 E2.9878
G1 Y97.8000 E3.9837
G1 X122.6000 Y97.4000 F4800
G1 X97.4000 E5.0122 F600
G1 Y122.6000 E6.0408
G1 X122.6000 E7.0694
G1 Y97.4000 E8.0980
G1 E4.0980 F1800 ; e-retract 4
G1 X119.0000 Y101.0000 F4800
G1 E8.0980 F1800 ; e-engage 4
G4 P30
G1 X101.0000 E8.9429 F600
G1 Y119.0000 E9.7878
G1 X119.0000 E10.6327
G1 Y101.0000 E11.4776
G1 X119.4000 Y100.6000 F4800
G1 X100.6000 E12.3600 F600
G1 Y119.4000 E13.2424
G1 X119.4000 E14.1249
G1 Y100.6000 E15.0073
G1 X119.8000 Y100.2000 F4800
G1 X100.2000 E15.9273 F600
G1 Y119.8000 E16.8473
G1 X119.8000 E17.7673
G1 Y100.2000 E18.6873
G1 X118.7200 Y101.8457 F4800
G1 X118.1543 Y101.2800 E18.7249 F2100
G1 X117.5886 E18.7515
G1 X118.7200 Y102.4114 E18.8266
G1 Y102.9771 E18.8531
G1 X117.0229 Y101.2800 E18.9658
G1 X116.4573 E18.9923
G1 X118.7200 Y103.5427 E19.1425
G1 Y104.1084 E19.1691
G1 X115.8916 Y101.2800 E19.3568
G1 X115.3259 E19.3834
G1 X118.7200 Y104.6741 E19.6087
G1 Y105.2398 E19.6352
G1 X114.7602 Y101.2800 E19.8981
G1 X114.1945 E19.9246
G1 X118.7200 Y105.8055 E20.2251
G1 Y106.3712 E20.2516
G1 X113.6288 Y101.2800 E20.5896
G1 X113.0631 E20.6161
G1 X118.7200 Y106.9369 E20.9916
G1 Y107.5025 E21.0182
G1 X112.4975 Y101.2800 E21.4312
G1 X111.9318 E21.4578
G1 X118.7200 Y108.0682 E21.9084
G1 Y108.6339 E21.9350
G1 X111.3661 Y101.2800 E22.4231
G1 X110.8004 E22.4497
G1 X118.7200 Y109.1996 E22.9754
G1 Y109.7653 E23.0019
G1 X110.2347 Y101.2800 E23.5652
G1 X109.6690 E23.5918
G1 X118.7200 Y110.3310 E24.1926
G1 Y110.8966 E24.2191
G1 X109.1033 Y101.2800 E24.8575
G1 X108.5377 E24.8840
G1 X118.7200 Y111.4623 E25.5600
G1 Y112.0280 E25.5865
G1 X107.9720 Y101.2800 E26.3000
G1 X107.4063 E26.3265
G1 X118.7200 Y112.5937 E27.0776
G1 Y113.1594 E27.1041
G1 X106.8406 Y101.2800 E27.8927
G1 X106.2749 E27.9192
G1 X118.7200 Y113.7251 E28.7454
G1 Y114.2908 E28.7719
G1 X105.7092 Y101.2800 E29.6356
G1 X105.1435 E29.6621
G1 X118.7200 Y114.8564 E30.5634
G1 Y115.4221 E30.5899
G1 X104.5779 Y101.2800 E31.5287
G1 X104.0122 E31.5552
G1 X118.7200 Y115.9878 E32.5316
G1 Y116.5535 E32.5581
G1 X103.4465 Y101.2800 E33.5720
G1 X102.8808 E33.5986
G1 X118.7200 Y117.1192 E34.6500
G1 Y117.6849 E34.6765
G1 X102.3151 Y101.2800 E35.7655
G1 X101.7494 E35.7921
G1 X118.7200 Y118.2506 E36.9186
G1 X118.6237 Y118.7200 E36.9411
G1 X101.2800 Y101.3762 E38.0924
G1 Y101.9419 E38.1189
G1 X118.0581 Y118.7200 E39.2327
G1 X117.4924 E39.2593
G1 X101.2800 Y102.5076 E40.3355
G1 Y103.0733 E40.3620
G1 X116.9267 Y118.7200 E41.4007
G1 X116.3610 E41.4272
G1 X101.2800 Y103.6390 E42.4283
G1 Y104.2047 E42.4549
G1 X115.7953 Y118.7200 E43.4184
G1 X115.2296 E43.4450
G1 X101.2800 Y104.7704 E44.3710
G1 Y105.3361 E44.3975
G1 X114.6639 Y118.7200 E45.2860
G1 X114.0983 E45.3125
G1 X101.2800 Y105.9017 E46.1634
G1 Y106.4674 E46.1900
G1 X113.5326 Y118.7200 E47.0033
G1 X112.9669 E47.0299
G1 X101.2800 Y107.0331 E47.8056
G1 Y107.5988 E47.8322
G1 X112.4012 Y118.7200 E48.5704
G1 X111.8355 E48.5970
G1 X101.2800 Y108.1645 E49.2977
G1 Y108.7302 E49.3242
G1 X111.2698 Y118.7200 E49.9874
G1 X110.7042 E50.0139
G1 X101.2800 Y109.2958 E50.6395
G1 Y109.8615 E50.6661
G1 X110.1385 Y118.7200 E51.2541
G1 X109.5728 E51.2807
G1 X101.2800 Y110.4272 E51.8312
G1 Y110.9929 E51.8577
G1 X109.0071 Y118.7200 E52.3706
G1 X108.4414 E52.3972
G1 X101.2800 Y111.5586 E52.8726
G1 Y112.1243 E52.8991
G1 X107.8757 Y118.7200 E53.3370
G1 X107.3100 E53.3635
G1 X101.2800 Y112.6900 E53.7638
G1 Y113.2556 E53.7904
G1 X106.7444 Y118.7200 E54.1531
G1 X106.1787 E54.1796
G1 X101.2800 Y113.8213 E54.5048
G1 Y114.3870 E54.5314
G1 X105.6130 Y118.7200 E54.8190
G1 X105.0473 E54.8456
G1 X101.2800 Y114.9527 E55.0956
G1 Y115.5184 E55.1222
G1 X104.4816 Y118.7200 E55.3347
G1 X103.9159 E55.3613
G1 X101.2800 Y116.0841 E55.5362
G1 Y116.6497 E55.5628
G1 X103.3502 Y118.7200 E55.7002
G1 X102.7846 E55.7268
G1 X101.2800 Y117.2154 E55.8266
G1 Y117.7811 E55.8532
G1 X102.2189 Y118.7200 E55.9155
G1 X101.4666 Y118.5334 E55.9519
G1 E51.9519 F1800 ; e-retract 4
;LAYER:1
M106 S255
G1 Z0.5050 F4800
G1 X101.0000 Y119.0000
G1 E55.9519 F1800 ; e-engage 4
G4 P30
G1 X119.0000 E56.6866 F2328
G1 Y101.0000 E57.4213
G1 X101.0000 E58.1560
G1 Y118.9000 E58.8866
G1 Y119.0000 F4800
G1 X100.6000 Y119.4000
G1 X119.4000 E59.6539 F2405
G1 Y100.6000 E60.4213
G1 X100.6000 E61.1886
G1 Y119.3000 E61.9519
G1 Y119.4000 F4800
G1 X100.2000 Y119.8000
G1 X119.8000 E62.7519 F2482
G1 Y100.2000 E63.5519
G1 X100.2000 E64.3519
G1 Y119.7000 E65.1478
G1 Y119.8000 F4800
G1 X101.8457 Y101.2800
G1 X101.2800 Y101.8457 E65.1805 F3000
G1 Y102.4114 E65.2036
G1 X102.4114 Y101.2800 E65.2689
G1 X102.9771 E65.2920
G1 X101.2800 Y102.9771 E65.3899
G1 Y103.5427 E65.4130
G1 X103.5427 Y101.2800 E65.5436
G1 X104.1084 E65.5667
G1 X101.2800 Y104.1084 E65.7300
G1 Y104.6741 E65.7531
G1 X104.6741 Y101.2800 E65.9490
G1 X105.2398 E65.9721
G1 X101.2800 Y105.2398 E66.2006
G1 Y105.8055 E66.2237
G1 X105.8055 Y101.2800 E66.4850
G1 X106.3712 E66.5080
G1 X101.2800 Y106.3712 E66.8019
G1 Y106.9369 E66.8250
G1 X106.9369 Y101.2800 E67.1515
G1 X107.5025 E67.1746
G1 X101.2800 Y107.5025 E67.5338
G1 Y108.0682 E67.5569
G1 X108.0682 Y101.2800 E67.9487
G1 X108.6339 E67.9718
G1 X101.2800 Y108.6339 E68.3963
G1 Y109.1996 E68.4194
G1 X109.1996 Y101.2800 E68.8766
G1 X109.7653 E68.8996
G1 X101.2800 Y109.7653 E69.3894
G1 Y110.3310 E69.4125
G1 X110.3310 Y101.2800 E69.9350
G1 X110.8967 E69.9581
G1 X101.2800 Y110.8966 E70.5132
G1 Y111.4623 E70.5363
G1 X111.4623 Y101.2800 E71.1240
G1 X112.0280 E71.1471
G1 X101.2800 Y112.0280 E71.7675
G1 Y112.5937 E71.7906
G1 X112.5937 Y101.2800 E72.4437
G1 X113.1594 E72.4668
G1 X101.2800 Y113.1594 E73.1525
G1 Y113.7251 E73.1756
G1 X113.7251 Y101.2800 E73.8939
G1 X114.2908 E73.9170
G1 X101.2800 Y114.2908 E74.6680
G1 Y114.8564 E74.6911
G1 X114.8565 Y101.2800 E75.4748
G1 X115.4221 E75.4979
G1 X101.2800 Y115.4221 E76.3142
G1 Y115.9878 E76.3373
G1 X115.9878 Y101.2800 E77.1863
G1 X116.5535 E77.2094
G1 X101.2800 Y116.5535 E78.0910
G1 Y117.1192 E78.1141
G1 X117.1192 Y101.2800 E79.0284
G1 X117.6849 E79.0515
G1 X101.2800 Y117.6849 E79.9984
G1 Y118.2506 E80.0215
G1 X118.2506 Y101.2800 E81.0011
G1 X118.7200 Y101.3762 E81.0206
G1 X101.3763 Y118.7200 E82.0218
G1 X101.9419 E82.0449
G1 X118.7200 Y101.9419 E83.0133
G1 Y102.5076 E83.0364
G1 X102.5076 Y118.7200 E83.9723
G1 X103.0733 E83.9954
G1 X118.7200 Y103.0733 E84.8985
G1 Y103.6390 E84.9216
G1 X103.6390 Y118.7200 E85.7921
G1 X104.2047 E85.8152
G1 X118.7200 Y104.2047 E86.6531
G1 Y104.7704 E86.6762
G1 X104.7704 Y118.7200 E87.4814
G1 X105.3361 E87.5045
G1 X118.7200 Y105.3361 E88.2770
G1 Y105.9017 E88.3001
G1 X105.9017 Y118.7200 E89.0400
G1 X106.4674 E89.0631
G1 X118.7200 Y106.4674 E89.7704
G1 Y107.0331 E89.7935
G1 X107.0331 Y118.7200 E90.4681
G1 X107.5988 E90.4912
G1 X118.7200 Y107.5988 E91.1331
G1 Y108.1645 E91.1562
G1 X108.1645 Y118.7200 E91.7655
G1 X108.7302 E91.7886
G1 X118.7200 Y108.7302 E92.3652
G1 Y109.2958 E92.3883
G1 X109.2958 Y118.7200 E92.9323
G1 X109.8615 E92.9554
G1 X118.7200 Y109.8615 E93.4667
G1 Y110.4272 E93.4898
G1 X110.4272 Y118.7200 E93.9685
G1 X110.9929 E93.9916
G1 X118.7200 Y110.9929 E94.4376
G1 Y111.5586 E94.4607
G1 X111.5586 Y118.7200 E94.8741
G1 X112.1243 E94.8972
G1 X118.7200 Y112.1243 E95.2779
G1 Y112.6900 E95.3010
G1 X112.6900 Y118.7200 E95.6491
G1 X113.2556 E95.6722
G1 X118.7200 Y113.2556 E95.9876
G1 Y113.8213 E96.0107
G1 X113.8213 Y118.7200 E96.2934
G1 X114.3870 E96.3165
G1 X118.7200 Y114.3870 E96.5667
G1 Y114.9527 E96.5897
G1 X114.9527 Y118.7200 E96.8072
G1 X115.5184 E96.8303
G1 X118.7200 Y115.5184 E97.0151
G1 Y116.0841 E97.0382
G1 X116.0841 Y118.7200 E97.1903
G1 X116.6498 E97.2134
G1 X118.7200 Y116.6497 E97.3329
G1 Y117.2154 E97.3560
G1 X117.2154 Y118.7200 E97.4429
G1 X117.7811 E97.4660
G1 X118.7200 Y117.7811 E97.5202
G1 X118.5334 Y118.5334 E97.5518
G1 E93.5518 F1800 ; e-retract 4
;LAYER:2
G1 Z0.7550 F4800
G1 X119.0000 Y119.0000
G1 E97.5518 F1800 ; e-engage 4
G4 P30
G1 Y101.0000 E98.2865 F2328
G1 X101.0000 E99.0212
G1 Y119.0000 E99.7559
G1 X118.9000 E100.4865
G1 X119.0000 F4800
G1 X119.4000 Y119.4000
G1 Y100.6000 E101.2538 F2405
G1 X100.6000 E102.0212
G1 Y119.4000 E102.7885
G1 X119.3000 E103.5518
G1 X119.4000 F4800
G1 X119.8000 Y119.8000
G1 Y100.2000 E104.3518 F2482
G1 X100.2000 E105.1518
G1 Y119.8000 E105.9518
G1 X119.7000 E106.7477
G1 X119.8000 F4800
G1 X118.7200 Y101.8457
G1 X118.1543 Y101.2800 E106.7804 F3000
G1 X117.5886 E106.8034
G1 X118.7200 Y102.4114 E106.8688
G1 Y102.9771 E106.8918
G1 X117.0229 Y101.2800 E106.9898
G1 X116.4573 E107.0129
G1 X118.7200 Y103.5427 E107.1435
G1 Y104.1084 E107.1666
G1 X115.8916 Y101.2800 E107.3299
G1 X115.3259 E107.3529
G1 X118.7200 Y104.6741 E107.5489
G1 Y105.2398 E107.5720
G1 X114.7602 Y101.2800 E107.8005
G1 X114.1945 E107.8236
G1 X118.7200 Y105.8055 E108.0848
G1 Y106.3712 E108.1079
G1 X113.6288 Y101.2800 E108.4018
G1 X113.0631 E108.4249
G1 X118.7200 Y106.9369 E108.7514
G1 Y107.5025 E108.7745
G1 X112.4975 Y101.2800 E109.1337
G1 X111.9318 E109.1568
G1 X118.7200 Y108.0682 E109.5486
G1 Y108.6339 E109.5717
G1 X111.3661 Y101.2800 E109.9962
G1 X110.8004 E110.0193
G1 X118.7200 Y109.1996 E110.4764
G1 Y109.7653 E110.4995
G1 X110.2347 Y101.2800 E110.9893
G1 X109.6690 E111.0124
G1 X118.7200 Y110.3310 E111.5349
G1 Y110.8966 E111.5579
G1 X109.1033 Y101.2800 E112.1131
G1 X108.5377 E112.1361
G1 X118.7200 Y111.4623 E112.7239
G1 Y112.0280 E112.7470
G1 X107.9720 Y101.2800 E113.3674
G1 X107.4063 E113.3905
G1 X118.7200 Y112.5937 E114.0435
G1 Y113.1594 E114.0666
G1 X106.8406 Y101.2800 E114.7523
G1 X106.2749 E114.7754
G1 X118.7200 Y113.7251 E115.4938
G1 Y114.2908 E115.5169
G1 X105.7092 Y101.2800 E116.2679
G1 X105.1435 E116.2910
G1 X118.7200 Y114.8564 E117.0747
G1 Y115.4221 E117.0978
G1 X104.5779 Y101.2800 E117.9141
G1 X104.0122 E117.9372
G1 X118.7200 Y115.9878 E118.7862
G1 Y116.5535 E118.8092
G1 X103.4465 Y101.2800 E119.6909
G1 X102.8808 E119.7140
G1 X118.7200 Y117.1192 E120.6283
G1 Y117.6849 E120.6513
G1 X102.3151 Y101.2800 E121.5983
G1 X101.7494 E121.6214
G1 X118.7200 Y118.2506 E122.6010
G1 X118.6237 Y118.7200 E122.6205
G1 X101.2800 Y101.3762 E123.6217
G1 Y101.9419 E123.6447
G1 X118.0581 Y118.7200 E124.6132
G1 X117.4924 E124.6363
G1 X101.2800 Y102.5076 E125.5721
G1 Y103.0733 E125.5952
G1 X116.9267 Y118.7200 E126.4984
G1 X116.3610 E126.5215
G1 X101.2800 Y103.6390 E127.3920
G1 Y104.2047 E127.4151
G1 X115.7953 Y118.7200 E128.2530
G1 X115.2296 E128.2761
G1 X101.2800 Y104.7704 E129.0813
G1 Y105.3361 E129.1044
G1 X114.6639 Y118.7200 E129.8769
G1 X114.0983 E129.9000
G1 X101.2800 Y105.9017 E130.6399
G1 Y106.4674 E130.6630
G1 X113.5326 Y118.7200 E131.3703
G1 X112.9669 E131.3934
G1 X101.2800 Y107.0331 E132.0680
G1 Y107.5988 E132.0911
G1 X112.4012 Y118.7200 E132.7330
G1 X111.8355 E132.7561
G1 X101.2800 Y108.1645 E133.3654
G1 Y108.7302 E133.3885
G1 X111.2698 Y118.7200 E133.9651
G1 X110.7042 E133.9882
G1 X101.2800 Y109.2958 E134.5322
G1 Y109.8615 E134.5553
G1 X110.1385 Y118.7200 E135.0666
G1 X109.5728 E135.0897
G1 X101.2800 Y110.4272 E135.5684
G1 Y110.9929 E135.5915
G1 X109.0071 Y118.7200 E136.0375
G1 X108.4414 E136.0606
G1 X101.2800 Y111.5586 E136.4740
G1 Y112.1243 E136.4971
G1 X107.8757 Y118.7200 E136.8778
G1 X107.3100 E136.9009
G1 X101.2800 Y112.6900 E137.2490
G1 Y113.2556 E137.2721
G1 X106.7444 Y118.7200 E137.5875
G1 X106.1787 E137.6106
G1 X101.2800 Y113.8213 E137.8933
G1 Y114.3870 E137.9164
G1 X105.6130 Y118.7200 E138.1665
G1 X105.0473 E138.1896
G1 X101.2800 Y114.9527 E138.4071
G1 Y115.5184 E138.4302
G1 X104.4816 Y118.7200 E138.6150
G1 X103.9159 E138.6381
G1 X101.2800 Y116.0841 E138.7902
G1 Y116.6497 E138.8133
G1 X103.3502 Y118.7200 E138.9328
G1 X102.7846 E138.9559
G1 X101.2800 Y117.2154 E139.0428
G1 Y117.7811 E139.0658
G1 X102.2189 Y118.7200 E139.1200
G1 X101.4666 Y118.5334 E139.1517
G1 E135.1517 F1800 ; e-retract 4
;LAYER:3
G1 Z1.0050 F4800
G1 X101.0000 Y119.0000
G1 E139.1517 F1800 ; e-engage 4
G4 P30
G1 X119.0000 E139.8864 F2328
G1 Y101.0000 E140.6211
G1 X101.0000 E141.3558
G1 Y118.9000 E142.0864
G1 Y119.0000 F4800
G1 X100.6000 Y119.4000
G1 X119.4000 E142.8537 F2405
G1 Y100.6000 E143.6211
G1 X100.6000 E144.3884
G1 Y119.3000 E145.1517
G1 Y119.4000 F4800
G1 X100.2000 Y119.8000
G1 X119.8000 E145.9517 F2482
G1 Y100.2000 E146.7517
G1 X100.2000 E147.5517
G1 Y119.7000 E148.3476
G1 Y119.8000 F4800
G1 X104.8943 Y118.7200
G1 X104.8100 Y118.5575 E148.3551 F3000
G1 X104.7288 Y118.3544 E148.3640
G1 X104.6637 Y118.0944 E148.3749
G1 X104.6150 Y117.4850 E148.3999
G1 X104.6637 Y116.8187 E148.4271
G1 X104.7288 Y116.4938 E148.4407
G1 X104.7938 Y116.2662 E148.4503
G1 X104.8588 Y116.0712 E148.4587
G1 X104.9400 Y115.8438 E148.4686
G1 X105.0375 Y115.6163 E148.4787
G1 X105.1350 Y115.4213 E148.4876
G1 X105.2488 Y115.2262 E148.4968
G1 X105.3787 Y115.0231 E148.5066
G1 X105.5087 Y114.8363 E148.5159
G1 X105.6550 Y114.6494 E148.5256
G1 X105.8175 Y114.4625 E148.5357
G1 X105.9800 Y114.3000 E148.5451
