; Generated by Kiri:Moto undefined
; Wed Aug 25 2021 07:03:57 GMT+0200 (Central European Summer Time)
; Bed left:0 right:220 top:220 bottom:0
; Bed type: fixed
; Target: internal
; --- process ---
; processName = default
; sliceHeight = 0.4
; sliceShells = 3
; sliceShellOrder = in-out
; sliceLayerStart = last
; sliceLineWidth = 0
; sliceFillAngle = 45
; sliceFillWidth = 1
; sliceFillOverlap = 0.3
; sliceFillSparse = 0.2
; sliceFillRepeat = 1
; sliceFillRate = 0
; sliceFillType = gyroid
; sliceSupportDensity = 0.25
; sliceSupportOffset = 0.4
; sliceSupportGap = 1
; sliceSupportSize = 6
; sliceSupportArea = 1
; sliceSupportSpan = 5
; sliceSupportExtra = 0
; sliceSupportAngle = 50
; sliceSupportNozzle = 0
; sliceSupportEnable = false
; sliceSolidMinArea = 10
; sliceSolidLayers = 3
; sliceBottomLayers = 3
; sliceTopLayers = 3
; firstSliceHeight = 0.25
; firstLayerRate = 10
; firstLayerFillRate = 35
; firstLayerPrintMult = 1.15
; firstLayerLineMult = 1
; firstLayerYOffset = 0
; firstLayerNozzleTemp = 0
; firstLayerBedTemp = 0
; firstLayerBrim = 0
; firstLayerBrimIn = 0
; firstLayerBrimTrig = 0
; firstLayerBrimComb = 0
; firstLayerBrimGap = 0
; firstLayerBeltLead = 3
; firstLayerBeltBump = 0
; firstLayerFanSpeed = 0
; outputRaft = false
; outputRaftSpacing = 0.2
; outputTemp = 210
; outputBedTemp = 60
; outputFeedrate = 50
; outputFinishrate = 50
; outputSeekrate = 80
; outputShellMult = 1.25
; outputFillMult = 1.25
; outputSparseMult = 1.25
; outputFanSpeed = 255
; outputRetractDist = 4
; outputRetractSpeed = 30
; outputRetractWipe = 0
; outputRetractDwell = 30
; outputBrimCount = 2
; outputBrimOffset = 2
; outputShortPoly = 100
; outputMinSpeed = 10
; outputCoastDist = 0.1
; outputPurgeTower = true
; outputBeltFirst = false
; outputLayerRetract = true
; outputOriginCenter = false
; outputLoops = 0
; outputInvertX = false
; outputInvertY = false
; detectThinWalls = true
; sliceMinHeight = 0
; sliceAdaptive = false
; zHopDistance = 0
; arcTolerance = 0
; antiBacklash = 0
; gcodePauseLayers = 
; ranges = 
; sName = Ender3_test
; sliceSkirtCount = 0
; sliceSkirtOffset = 2
; outputLoopLayers = null
; gcodePause = 
; --- startup ---
M107                     ; turn off filament cooling fan
G90                      ; set absolute positioning mode
M82                      ; set absolute positioning for extruder
M104 S210 T0             ; set extruder temperature
M140 S60 T0              ; set bed temperature
G28                      ; home axes
G92 X0 Y0 Z0 E0          ; reset all axes positions
G1 X0 Y0 Z0.25 F180      ; move XY to 0,0 and Z 0.25mm over bed
G92 E0                   ; zero the extruded
M190 S60 T0              ; wait for bed to reach target temp
M109 S210 T0             ; wait for extruder to reach target temp
G92 E0                   ; zero the extruded
G1 F225                  ; set feed speed

; set temperatures
M104 S210 T0             ; set extruder temperature
M140 S60 T0              ; set bed temperature
M190 S60 T0              ; wait bed temperature
M109 S210 T0             ; wait extruder temperature
G92 E0
G1 E-4.0000 F1800 ; e-retract 4
;LAYER:0
M106 S0
G1 Z0.4000 F4800
G1 X122.2500 Y97.7500
G1 E0.0000 F1800 ; e-engage 4
G4 P30
G1 X97.7500 E1.2500 F600
G1 Y122.2500 E2.5000
G1 X122.2500 E3.7500
G1 Y97.7500 E5.0000
G1 X122.7500 Y97.2500 F4800
G1 X97.2500 E6.3010 F600
G1 Y122.7500 E7.6020
G1 X122.7500 E8.9031
G1 Y97.2500 E10.2041
G1 E6.2041 F1800 ; e-retract 4
G1 X118.7500 Y101.2500 F4800
G1 E10.2041 F1800 ; e-engage 4
G4 P30
G1 X101.2500 E11.2309 F600
G1 Y118.7500 E12.2577
G1 X118.7500 E13.2844
G1 Y101.2500 E14.3112
G1 X119.2500 Y100.7500 F4800
G1 X100.7500 E15.3967 F600
G1 Y119.2500 E16.4821
G1 X119.2500 E17.5676
G1 Y100.7500 E18.6531
G1 X119.7500 Y100.2500 F4800
G1 X100.2500 E19.7972 F600
G1 Y119.7500 E20.9413
G1 X119.7500 E22.0855
G1 Y100.2500 E23.2296
G1 X118.4000 Y102.3071 F4800
G1 X117.6929 Y101.6000 E23.2883 F2100
G1 X116.9858 E23.3298
G1 X118.4000 Y103.0142 E23.4471
G1 Y103.7213 E23.4886
G1 X116.2787 Y101.6000 E23.6646
G1 X115.5716 E23.7061
G1 X118.4000 Y104.4284 E23.9408
G1 Y105.1355 E23.9823
G1 X114.8645 Y101.6000 E24.2756
G1 X114.1574 E24.3171
G1 X118.4000 Y105.8426 E24.6692
G1 Y106.5498 E24.7107
G1 X113.4503 Y101.6000 E25.1214
G1 X112.7431 E25.1629
G1 X118.4000 Y107.2569 E25.6323
G1 Y107.9640 E25.6737
G1 X112.0360 Y101.6000 E26.2018
G1 X111.3289 E26.2433
G1 X118.4000 Y108.6711 E26.8300
G1 Y109.3782 E26.8715
G1 X110.6218 Y101.6000 E27.5169
G1 X109.9147 E27.5584
G1 X118.4000 Y110.0853 E28.2625
G1 Y110.7924 E28.3040
G1 X109.2076 Y101.6000 E29.0667
G1 X108.5005 E29.1082
G1 X118.4000 Y111.4995 E29.9297
G1 Y112.2066 E29.9711
G1 X107.7934 Y101.6000 E30.8512
G1 X107.0863 E30.8927
G1 X118.4000 Y112.9137 E31.8315
G1 Y113.6208 E31.8730
G1 X106.3792 Y101.6000 E32.8704
G1 X105.6721 E32.9119
G1 X118.4000 Y114.3279 E33.9681
G1 Y115.0350 E34.0095
G1 X104.9650 Y101.6000 E35.1243
G1 X104.2579 E35.1658
G1 X118.4000 Y115.7421 E36.3393
G1 Y116.4492 E36.3808
G1 X103.5508 Y101.6000 E37.6129
G1 X102.8436 E37.6544
G1 X118.4000 Y117.1564 E38.9452
G1 Y117.8635 E38.9867
G1 X102.1365 Y101.6000 E40.3362
G1 X101.6000 Y101.7706 E40.3692
G1 X118.2294 Y118.4000 E41.7491
G1 X117.5223 E41.7906
G1 X101.6000 Y102.4777 E43.1118
G1 Y103.1848 E43.1533
G1 X116.8152 Y118.4000 E44.4158
G1 X116.1081 E44.4573
G1 X101.6000 Y103.8919 E45.6611
G1 Y104.5990 E45.7026
G1 X115.4010 Y118.4000 E46.8478
G1 X114.6939 E46.8892
G1 X101.6000 Y105.3061 E47.9757
G1 Y106.0132 E48.0172
G1 X113.9868 Y118.4000 E49.0450
G1 X113.2797 E49.0865
G1 X101.6000 Y106.7203 E50.0557
G1 Y107.4274 E50.0972
G1 X112.5726 Y118.4000 E51.0076
G1 X111.8655 E51.0491
G1 X101.6000 Y108.1345 E51.9009
G1 Y108.8416 E51.9424
G1 X111.1584 Y118.4000 E52.7355
G1 X110.4513 E52.7770
G1 X101.6000 Y109.5487 E53.5115
G1 Y110.2558 E53.5530
G1 X109.7442 Y118.4000 E54.2287
G1 X109.0370 E54.2702
G1 X101.6000 Y110.9630 E54.8873
G1 Y111.6701 E54.9288
G1 X108.3299 Y118.4000 E55.4872
G1 X107.6228 E55.5287
G1 X101.6000 Y112.3772 E56.0285
G1 Y113.0843 E56.0700
G1 X106.9157 Y118.4000 E56.5111
G1 X106.2086 E56.5525
G1 X101.6000 Y113.7914 E56.9349
G1 Y114.4985 E56.9764
G1 X105.5015 Y118.4000 E57.3002
G1 X104.7944 E57.3417
G1 X101.6000 Y115.2056 E57.6067
G1 Y115.9127 E57.6482
G1 X104.0873 Y118.4000 E57.8546
G1 X103.3802 E57.8961
G1 X101.6000 Y116.6198 E58.0438
G1 Y117.3269 E58.0853
G1 X102.6731 Y118.4000 E58.1743
G1 X101.7830 Y118.2170 E58.2276
G1 E54.2276 F1800 ; e-retract 4
;LAYER:1
M106 S255
G1 Z0.8000 F4800
G1 X101.2500 Y118.7500
G1 E58.2276 F1800 ; e-engage 4
G4 P30
G1 X118.7500 E59.6562 F2280
G1 Y101.2500 E61.0848
G1 X101.2500 E62.5134
G1 Y118.6500 E63.9338
G1 Y118.7500 F4800
G1 X100.7500 Y119.2500
G1 X119.2500 E65.4440 F2376
G1 Y100.7500 E66.9542
G1 X100.7500 E68.4644
G1 Y119.1500 E69.9664
G1 Y119.2500 F4800
G1 X100.2500 Y119.7500
G1 X119.7500 E71.5583 F2472
G1 Y100.2500 E73.1501
G1 X100.2500 E74.7419
G1 Y119.6500 E76.3256
G1 Y119.7500 F4800
G1 X102.3071 Y101.6000
G1 X101.6000 Y102.3071 E76.4072 F3000
G1 Y103.0142 E76.4650
G1 X103.0142 Y101.6000 E76.6282
G1 X103.7213 E76.6860
G1 X101.6000 Y103.7213 E76.9308
G1 Y104.4284 E76.9886
G1 X104.4284 Y101.6000 E77.3151
G1 X105.1355 E77.3728
G1 X101.6000 Y105.1355 E77.7810
G1 Y105.8426 E77.8387
G1 X105.8426 Y101.6000 E78.3285
G1 X106.5497 E78.3862
G1 X101.6000 Y106.5498 E78.9577
G1 Y107.2569 E79.0154
G1 X107.2569 Y101.6000 E79.6684
G1 X107.9640 E79.7262
G1 X101.6000 Y107.9640 E80.4609
G1 Y108.6711 E80.5186
G1 X108.6711 Y101.6000 E81.3349
G1 X109.3782 E81.3926
G1 X101.6000 Y109.3782 E82.2906
G1 Y110.0853 E82.3483
G1 X110.0853 Y101.6000 E83.3279
G1 X110.7924 E83.3856
G1 X101.6000 Y110.7924 E84.4469
G1 Y111.4995 E84.5046
G1 X111.4995 Y101.6000 E85.6474
G1 X112.2066 E85.7052
G1 X101.6000 Y112.2066 E86.9296
G1 Y112.9137 E86.9874
G1 X112.9137 Y101.6000 E88.2935
G1 X113.6208 E88.3512
G1 X101.6000 Y113.6208 E89.7390
G1 Y114.3279 E89.7967
G1 X114.3279 Y101.6000 E91.2661
G1 X115.0350 E91.3238
G1 X101.6000 Y115.0350 E92.8748
G1 Y115.7421 E92.9325
G1 X115.7421 Y101.6000 E94.5652
G1 X116.4492 E94.6229
G1 X101.6000 Y116.4492 E96.3372
G1 Y117.1564 E96.3949
G1 X117.1564 Y101.6000 E98.1909
G1 X117.8635 E98.2486
G1 X101.6000 Y117.8635 E100.1261
G1 X101.7706 Y118.4000 E100.1721
G1 X118.4000 Y101.7706 E102.0919
G1 Y102.4777 E102.1496
G1 X102.4777 Y118.4000 E103.9878
G1 X103.1848 E104.0455
G1 X118.4000 Y103.1848 E105.8020
G1 Y103.8919 E105.8598
G1 X103.8919 Y118.4000 E107.5347
G1 X104.5990 E107.5924
G1 X118.4000 Y104.5990 E109.1857
G1 Y105.3061 E109.2434
G1 X105.3061 Y118.4000 E110.7550
G1 X106.0132 E110.8127
G1 X118.4000 Y106.0132 E112.2428
G1 Y106.7203 E112.3005
G1 X106.7203 Y118.4000 E113.6488
G1 X107.4274 E113.7066
G1 X118.4000 Y107.4274 E114.9733
G1 Y108.1345 E115.0310
G1 X108.1345 Y118.4000 E116.2161
G1 X108.8416 E116.2739
G1 X118.4000 Y108.8416 E117.3773
G1 Y109.5487 E117.4351
G1 X109.5487 Y118.4000 E118.4569
G1 X110.2558 E118.5146
G1 X118.4000 Y110.2558 E119.4548
G1 Y110.9630 E119.5126
G1 X110.9630 Y118.4000 E120.3711
G1 X111.6701 E120.4289
G1 X118.4000 Y111.6701 E121.2058
G1 Y112.3772 E121.2635
G1 X112.3772 Y118.4000 E121.9588
G1 X113.0843 E122.0166
G1 X118.4000 Y113.0843 E122.6302
G1 Y113.7914 E122.6880
G1 X113.7914 Y118.4000 E123.2200
G1 X114.4985 E123.2777
G1 X118.4000 Y114.4985 E123.7282
G1 Y115.2056 E123.7859
G1 X115.2056 Y118.4000 E124.1547
G1 X115.9127 E124.2124
G1 X118.4000 Y115.9127 E124.4995
G1 Y116.6198 E124.5573
G1 X116.6198 Y118.4000 E124.7628
G1 X117.3269 E124.8205
G1 X118.4000 Y117.3269 E124.9444
G1 X118.2170 Y118.2170 E125.0186
G1 E121.0186 F1800 ; e-retract 4
;LAYER:2
G1 Z1.2000 F4800
G1 X118.7500 Y118.7500
G1 E125.0186 F1800 ; e-engage 4
G4 P30
G1 Y101.2500 E126.4471 F2280
G1 X101.2500 E127.8757
G1 Y118.7500 E129.3043
G1 X118.6500 E130.7247
G1 X118.7500 F4800
G1 X119.2500 Y119.2500
G1 Y100.7500 E132.2349 F2376
G1 X100.7500 E133.7451
G1 Y119.2500 E135.2553
G1 X119.1500 E136.7573
G1 X119.2500 F4800
G1 X119.7500 Y119.7500
G1 Y100.2500 E138.3492 F2472
G1 X100.2500 E139.9410
G1 Y119.7500 E141.5328
G1 X119.6500 E143.1165
G1 X119.7500 F4800
G1 X118.4000 Y102.3071
G1 X117.6929 Y101.6000 E143.1982 F3000
G1 X116.9858 E143.2559
G1 X118.4000 Y103.0142 E143.4191
G1 Y103.7213 E143.4769
G1 X116.2787 Y101.6000 E143.7218
G1 X115.5716 E143.7795
G1 X118.4000 Y104.4284 E144.1060
G1 Y105.1355 E144.1637
G1 X114.8645 Y101.6000 E144.5719
G1 X114.1574 E144.6296
G1 X118.4000 Y105.8426 E145.1194
G1 Y106.5498 E145.1771
G1 X113.4503 Y101.6000 E145.7486
G1 X112.7431 E145.8063
G1 X118.4000 Y107.2569 E146.4594
G1 Y107.9640 E146.5171
G1 X112.0360 Y101.6000 E147.2518
G1 X111.3289 E147.3095
G1 X118.4000 Y108.6711 E148.1258
G1 Y109.3782 E148.1835
G1 X110.6218 Y101.6000 E149.0815
G1 X109.9147 E149.1392
G1 X118.4000 Y110.0853 E150.1188
G1 Y110.7924 E150.1765
G1 X109.2076 Y101.6000 E151.2378
G1 X108.5005 E151.2955
G1 X118.4000 Y111.4995 E152.4383
G1 Y112.2066 E152.4961
G1 X107.7934 Y101.6000 E153.7206
G1 X107.0863 E153.7783
G1 X118.4000 Y112.9137 E155.0844
G1 Y113.6208 E155.1421
G1 X106.3792 Y101.6000 E156.5299
G1 X105.6721 E156.5876
G1 X118.4000 Y114.3279 E158.0570
G1 Y115.0350 E158.1147
G1 X104.9650 Y101.6000 E159.6657
G1 X104.2579 E159.7235
G1 X118.4000 Y115.7421 E161.3561
G1 Y116.4492 E161.4138
G1 X103.5508 Y101.6000 E163.1281
G1 X102.8436 E163.1858
G1 X118.4000 Y117.1564 E164.9818
G1 Y117.8635 E165.0395
G1 X102.1365 Y101.6000 E166.9170
G1 X101.6000 Y101.7706 E166.9630
G1 X118.2294 Y118.4000 E168.8828
G1 X117.5223 E168.9405
G1 X101.6000 Y102.4777 E170.7787
G1 Y103.1848 E170.8364
G1 X116.8152 Y118.4000 E172.5930
G1 X116.1081 E172.6507
G1 X101.6000 Y103.8919 E174.3256
G1 Y104.5990 E174.3833
G1 X115.4010 Y118.4000 E175.9766
G1 X114.6939 E176.0343
G1 X101.6000 Y105.3061 E177.5459
G1 Y106.0132 E177.6037
G1 X113.9868 Y118.4000 E179.0337
G1 X113.2797 E179.0914
G1 X101.6000 Y106.7203 E180.4398
G1 Y107.4274 E180.4975
G1 X112.5726 Y118.4000 E181.7642
G1 X111.8655 E181.8219
G1 X101.6000 Y108.1345 E183.0071
G1 Y108.8416 E183.0648
G1 X111.1584 Y118.4000 E184.1683
G1 X110.4513 E184.2260
G1 X101.6000 Y109.5487 E185.2478
G1 Y110.2558 E185.3055
G1 X109.7442 Y118.4000 E186.2458
G1 X109.0370 E186.3035
G1 X101.6000 Y110.9630 E187.1621
G1 Y111.6701 E187.2198
G1 X108.3299 Y118.4000 E187.9967
G1 X107.6228 E188.0544
G1 X101.6000 Y112.3772 E188.7498
G1 Y113.0843 E188.8075
G1 X106.9157 Y118.4000 E189.4212
G1 X106.2086 E189.4789
G1 X101.6000 Y113.7914 E190.0109
G1 Y114.4985 E190.0687
G1 X105.5015 Y118.4000 E190.5191
G1 X104.7944 E190.5768
G1 X101.6000 Y115.2056 E190.9456
G1 Y115.9127 E191.0033
G1 X104.0873 Y118.4000 E191.2904
G1 X103.3802 E191.3482
G1 X101.6000 Y116.6198 E191.5537
G1 Y117.3269 E191.6114
G1 X102.6731 Y118.4000 E191.7353
G1 X101.7830 Y118.2170 E191.8095
G1 E187.8095 F1800 ; e-retract 4
;LAYER:3
G1 Z1.6000 F4800
G1 X101.2500 Y118.7500
G1 E191.8095 F1800 ; e-engage 4
G4 P30
G1 X118.7500 E193.2380 F2280
G1 Y101.2500 E194.6666
G1 X101.2500 E196.0952
G1 Y118.6500 E197.5156
G1 Y118.7500 F4800
G1 X100.7500 Y119.2500
G1 X119.2500 E199.0258 F2376
G1 Y100.7500 E200.5360
G1 X100.7500 E202.0462
G1 Y119.1500 E203.5482
G1 Y119.2500 F4800
G1 X100.2500 Y119.7500
G1 X119.7500 E205.1401 F2472
G1 Y100.2500 E206.7319
G1 X100.2500 E208.3238
G1 Y119.6500 E209.9074
G1 Y119.7500 F4800
G1 X104.0329 Y118.4000
G1 X104.0625 Y118.1188 E209.9305 F3000
G1 X104.1112 Y117.7938 E209.9573
G1 X104.1762 Y117.5012 E209.9818
G1 X104.2413 Y117.2656 E210.0018
G1 X104.3225 Y117.0056 E210.0240
G1 X104.4200 Y116.7456 E210.0467
G1 X104.5175 Y116.5100 E210.0675
G1 X104.6150 Y116.2987 E210.0865
G1 X104.7125 Y116.1038 E210.1043
G1 X104.8263 Y115.8925 E210.1239
G1 X104.9562 Y115.6894 E210.1435
G1 X105.0863 Y115.5025 E210.1621
G1 X105.2163 Y115.3319 E210.1796
G1 X105.3625 Y115.1531 E210.1985
G1 X105.5250 Y114.9825 E210.2177
G1 X105.6875 Y114.8200 E210.2365
G1 X105.8581 Y114.6575 E210.2557
G1 X106.0369 Y114.5113 E210.2746
G1 X106.2075 Y114.3812 E210.2921
G1 X106.3863 Y114.2512 E210.3101
G1 X106.5812 Y114.1213 E210.3293
G1 X106.7925 Y113.9912 E210.3495
G1 X107.0119 Y113.8612 E210.3703
G1 X107.2394 Y113.7313 E210.3917
G1 X107.4750 Y113.6012 E210.4137
G1 X107.7025 Y113.4712 E210.4351
G1 X107.9300 Y113.3413 E210.4565
G1 X108.1494 Y113.2113 E210.4773
G1 X108.3444 Y113.0812 E210.4964
G1 X108.4500 Y113.0000 E210.5073
G1 X108.4663 Y112.9838 E210.5092
G1 X108.4988 Y112.9513 E210.5129
G1 X108.6206 Y112.8456 E210.5261
G1 X108.7588 Y112.6831 E210.5435
G1 X108.8725 Y112.4881 E210.5619
G1 X108.9537 Y112.2362 E210.5835
G1 X109.0025 Y111.9112 E210.6103
G1 X108.9700 Y111.6350 E210.6331
G1 X108.9213 Y111.3100 E210.6599
G1 X108.8563 Y111.0175 E210.6843
G1 X108.7913 Y110.7819 E210.7043
G1 X108.7100 Y110.5219 E210.7265
G1 X108.6125 Y110.2619 E210.7492
G1 X108.5150 Y110.0263 E210.7700
G1 X108.4175 Y109.8150 E210.7890
G1 X108.3200 Y109.6200 E210.8068
G1 X108.2062 Y109.4087 E210.8264
G1 X108.0763 Y109.2056 E210.8461
G1 X107.9463 Y109.0187 E210.8647
G1 X107.8162 Y108.8481 E210.8822
G1 X107.6781 Y108.6856 E210.8996
G1 X107.5238 Y108.5150 E210.9184
G1 X107.3612 Y108.3525 E210.9371
G1 X107.1988 Y108.1900 E210.9559
G1 X107.0281 Y108.0438 E210.9742
G1 X106.8575 Y107.9137 E210.9917
G1 X106.6787 Y107.7837 E211.0098
G1 X106.4838 Y107.6538 E211.0289
G1 X106.2806 Y107.5238 E211.0486
G1 X106.0613 Y107.3937 E211.0694
G1 X105.8337 Y107.2638 E211.0908
G1 X105.6063 Y107.1338 E211.1122
G1 X105.3950 Y107.0200 E211.1318
G1 X105.1919 Y106.9063 E211.1508
G1 X104.9725 Y106.7763 E211.1716
G1 X104.7694 Y106.6462 E211.1913
G1 X104.5906 Y106.5162 E211.2093
G1 X104.4281 Y106.3700 E211.2272
G1 X104.2738 Y106.1994 E211.2460
G1 X104.1600 Y106.0044 E211.2644
G1 X104.0787 Y105.7525 E211.2860
G1 X104.0300 Y105.4275 E211.3128
G1 X104.0625 Y105.1188 E211.3382
G1 X104.1112 Y104.7938 E211.3650
G1 X104.1762 Y104.5012 E211.3895
G1 X104.2413 Y104.2656 E211.4094
G1 X104.3225 Y104.0056 E211.4316
G1 X104.4200 Y103.7456 E211.4543
G1 X104.5175 Y103.5100 E211.4751
G1 X104.6150 Y103.2987 E211.4941
G1 X104.7125 Y103.1038 E211.5119
G1 X104.8263 Y102.8925 E211.5315
G1 X104.9562 Y102.6894 E211.5512
G1 X105.0863 Y102.5025 E211.5698
G1 X105.2163 Y102.3319 E211.5873
