; Generated by Kiri:Moto undefined
; Sun Aug 08 2021 13:10:58 GMT+0200 (Central European Summer Time)
; Bed left:0 right:220 top:220 bottom:0
; Bed type: fixed
; Target: internal
; --- process ---
; processName = default
; sliceHeight = 0.25
; sliceShells = 3
; sliceShellOrder = in-out
; sliceLayerStart = last
; sliceLineWidth = 0
; sliceFillAngle = 45
; sliceFillWidth = 1
; sliceFillOverlap = 0.3
; sliceFillSparse = 0.2
; sliceFillRepeat = 1
; sliceFillRate = 0
; sliceFillType = gyroid
; sliceSupportDensity = 0.25
; sliceSupportOffset = 0.4
; sliceSupportGap = 1
; sliceSupportSize = 6
; sliceSupportArea = 1
; sliceSupportSpan = 5
; sliceSupportExtra = 0
; sliceSupportAngle = 50
; sliceSupportNozzle = 0
; sliceSupportEnable = false
; sliceSolidMinArea = 10
; sliceSolidLayers = 3
; sliceBottomLayers = 3
; sliceTopLayers = 3
; firstSliceHeight = 0.25
; firstLayerRate = 10
; firstLayerFillRate = 35
; firstLayerPrintMult = 1.15
; firstLayerLineMult = 1
; firstLayerYOffset = 0
; firstLayerNozzleTemp = 0
; firstLayerBedTemp = 0
; firstLayerBrim = 0
; firstLayerBrimIn = 0
; firstLayerBrimTrig = 0
; firstLayerBrimComb = 0
; firstLayerBrimGap = 0
; firstLayerBeltLead = 3
; firstLayerBeltBump = 0
; firstLayerFanSpeed = 0
; outputRaft = false
; outputRaftSpacing = 0.2
; outputTemp = 210
; outputBedTemp = 60
; outputFeedrate = 50
; outputFinishrate = 50
; outputSeekrate = 80
; outputShellMult = 1.25
; outputFillMult = 1.25
; outputSparseMult = 1.25
; outputFanSpeed = 255
; outputRetractDist = 4
; outputRetractSpeed = 30
; outputRetractWipe = 0
; outputRetractDwell = 30
; outputBrimCount = 2
; outputBrimOffset = 2
; outputShortPoly = 100
; outputMinSpeed = 10
; outputCoastDist = 0.1
; outputPurgeTower = true
; outputBeltFirst = false
; outputLayerRetract = true
; outputOriginCenter = false
; outputLoops = 0
; outputInvertX = false
; outputInvertY = false
; detectThinWalls = true
; sliceMinHeight = 0
; sliceAdaptive = false
; zHopDistance = 0
; arcTolerance = 0
; antiBacklash = 0
; gcodePauseLayers = 
; ranges = 
; sName = Ender3_test
; sliceSkirtCount = 0
; sliceSkirtOffset = 2
; outputLoopLayers = null
; gcodePause = 
; --- startup ---
M107                     ; turn off filament cooling fan
G90                      ; set absolute positioning mode
M82                      ; set absolute positioning for extruder
M104 S210 T0             ; set extruder temperature
M140 S60 T0              ; set bed temperature
G28                      ; home axes
G92 X0 Y0 Z0 E0          ; reset all axes positions
G1 X0 Y0 Z0.25 F180      ; move XY to 0,0 and Z 0.25mm over bed
G92 E0                   ; zero the extruded
M190 S60 T0              ; wait for bed to reach target temp
M109 S210 T0             ; wait for extruder to reach target temp
G92 E0                   ; zero the extruded
G1 F225                  ; set feed speed

; set temperatures
M104 S210 T0             ; set extruder temperature
M140 S60 T0              ; set bed temperature
M190 S60 T0              ; wait bed temperature
M109 S210 T0             ; wait extruder temperature
G92 E0
G1 E-4.0000 F1800 ; e-retract 4
;LAYER:0
M106 S0
G1 Z0.2550 F4800
G1 X122.2000 Y97.8000
G1 E0.0000 F1800 ; e-engage 4
G4 P30
G1 X97.8000 E0.9959 F600
G1 Y122.2000 E1.9918
G1 X122.2000 E2.9878
G1 Y97.8000 E3.9837
G1 X122.6000 Y97.4000 F4800
G1 X97.4000 E5.0122 F600
G1 Y122.6000 E6.0408
G1 X122.6000 E7.0694
G1 Y97.4000 E8.0980
G1 E4.0980 F1800 ; e-retract 4
G1 X115.2965 Y102.4960 F4800
G1 E8.0980 F1800 ; e-engage 4
G4 P30
G1 X104.7040 E8.5952 F600
G1 Y104.4320 E8.6860
G1 X112.4827 E9.0512
G1 X103.9615 Y115.5281 E9.7079
G1 Y117.2000 E9.7863
G1 X115.7735 E10.3408
G1 Y115.2640 E10.4316
G1 X106.7729 E10.8541
G1 X115.2965 Y104.1273 E11.5124
G1 Y102.4960 E11.5890
G1 X115.6965 Y102.0960 F4800
G1 X104.3040 E12.1237 F600
G1 Y104.8320 E12.2521
G1 X111.6712 E12.5980
G1 X103.5615 Y115.3922 E13.2229
G1 Y117.6000 E13.3266
G1 X116.1735 E13.9186
G1 Y114.8640 E14.0470
G1 X107.5828 E14.4502
G1 X115.6965 Y104.2627 E15.0769
G1 Y102.0960 E15.1786
G1 X116.0965 Y101.6960 F4800
G1 X103.9040 E15.7509 F600
G1 Y105.2320 E15.9168
G1 X110.8597 E16.2433
G1 X103.1615 Y115.2563 E16.8366
G1 Y118.0000 E16.9654
G1 X116.5735 E17.5949
G1 Y114.4640 E17.7609
G1 X108.3926 E18.1449
G1 X116.0965 Y104.3983 E18.7399
G1 Y101.6960 E18.8667
G1 X119.0000 Y101.0000 F4800
G1 X101.0000 E19.7116 F600
G1 Y119.0000 E20.5565
G1 X119.0000 E21.4014
G1 Y101.0000 E22.2463
G1 X119.4000 Y100.6000 F4800
G1 X100.6000 E23.1288 F600
G1 Y119.4000 E24.0112
G1 X119.4000 E24.8937
G1 Y100.6000 E25.7761
G1 X119.8000 Y100.2000 F4800
G1 X100.2000 E26.6961 F600
G1 Y119.8000 E27.6161
G1 X119.8000 E28.5361
G1 Y100.2000 E29.4561
G1 X118.7200 Y101.8457 F4800
G1 X118.1543 Y101.2800 E29.4937 F2100
G1 X117.5886 E29.5202
G1 X118.7200 Y102.4114 E29.5953
G1 Y102.9771 E29.6219
G1 X117.0229 Y101.2800 E29.7345
G1 X116.4573 E29.7611
G1 X118.7200 Y103.5427 E29.9113
G1 Y104.1084 E29.9378
G1 X116.3765 Y101.7649 E30.0934
G1 Y102.3306 E30.1199
G1 X118.7200 Y104.6741 E30.2755
G1 Y105.2398 E30.3021
G1 X116.3765 Y102.8963 E30.4576
G1 Y103.4620 E30.4842
G1 X118.7200 Y105.8055 E30.6397
G1 Y106.3712 E30.6663
G1 X116.3765 Y104.0277 E30.8219
G1 X116.3330 Y104.5499 E30.8465
G1 X118.7200 Y106.9369 E31.0049
G1 Y107.5025 E31.0315
G1 X116.0878 Y104.8703 E31.2062
G1 X115.8425 Y105.1908 E31.2251
G1 X118.7200 Y108.0682 E31.4161
G1 Y108.6339 E31.4427
G1 X115.5973 Y105.5112 E31.6500
G1 X115.3520 Y105.8316 E31.6689
G1 X118.7200 Y109.1996 E31.8925
G1 Y109.7653 E31.9190
G1 X115.1068 Y106.1521 E32.1589
G1 X114.8615 Y106.4725 E32.1778
G1 X118.7200 Y110.3310 E32.4340
G1 Y110.8966 E32.4605
G1 X114.6163 Y106.7930 E32.7329
G1 X114.3710 Y107.1134 E32.7519
G1 X118.7200 Y111.4623 E33.0406
G1 Y112.0280 E33.0671
G1 X114.1258 Y107.4338 E33.3721
G1 X113.8805 Y107.7543 E33.3910
G1 X118.7200 Y112.5937 E33.7123
G1 Y113.1594 E33.7388
G1 X113.6353 Y108.0747 E34.0764
G1 X113.3901 Y108.3951 E34.0953
G1 X118.7200 Y113.7251 E34.4491
G1 Y114.2908 E34.4757
G1 X113.1448 Y108.7156 E34.8457
G1 X112.8996 Y109.0360 E34.8647
G1 X118.7200 Y114.8564 E35.2511
G1 Y115.4221 E35.2776
G1 X112.6543 Y109.3564 E35.6803
G1 X112.4091 Y109.6769 E35.6992
G1 X118.7200 Y115.9878 E36.1181
G1 Y116.5535 E36.1447
G1 X116.8535 Y114.6870 E36.2686
G1 Y115.2527 E36.2951
G1 X118.7200 Y117.1192 E36.4190
G1 Y117.6849 E36.4456
G1 X116.8535 Y115.8184 E36.5695
G1 Y116.3841 E36.5960
G1 X118.7200 Y118.2506 E36.7199
G1 X118.6237 Y118.7200 E36.7424
G1 X116.8535 Y116.9497 E36.8599
G1 Y117.5154 E36.8865
G1 X118.0581 Y118.7200 E36.9665
G1 X117.4924 E36.9930
G1 X116.8535 Y118.0811 E37.0354
G1 X116.7067 Y118.5000 E37.0563
G1 X116.1410 E37.0828
G1 X115.5753 E37.1094
G1 X115.0096 E37.1359
G1 X114.4439 E37.1625
G1 X113.8783 E37.1890
G1 X113.3126 E37.2156
G1 X112.7469 E37.2421
G1 X112.1812 E37.2687
G1 X111.6155 E37.2952
G1 X111.0498 E37.3218
G1 X110.4842 E37.3483
G1 X109.9185 E37.3749
G1 X109.3528 E37.4014
G1 X108.7871 E37.4280
G1 X108.2214 E37.4545
G1 X107.6557 E37.4811
G1 X107.0900 E37.5076
G1 X106.5244 E37.5342
G1 X105.9587 E37.5608
G1 X105.3930 E37.5873
G1 X104.8273 E37.6139
G1 X104.2616 E37.6404
G1 X103.6959 E37.6670
G1 X103.1302 E37.6935
G1 X102.7846 Y118.7200 E37.7128
G1 X101.2800 Y117.2154 E37.8126
G1 Y117.7811 E37.8392
G1 X102.2189 Y118.7200 E37.9015
G1 X101.4666 Y118.5334 E37.9379
G1 E33.9379 F1800 ; e-retract 4
G1 X116.0276 Y101.4160 F4800
G1 E37.9379 F1800 ; e-engage 4
G4 P30
G1 X115.8916 Y101.2800 E37.9469 F2100
G1 X115.3939 Y101.3480 E37.9705
G1 X114.8282 E37.9970
G1 X114.2625 E38.0236
G1 X113.6968 E38.0501
G1 X113.1312 E38.0767
G1 X112.5655 E38.1033
G1 X111.9998 E38.1298
G1 X111.4341 E38.1564
G1 X110.8684 E38.1829
G1 X110.3027 E38.2095
G1 X109.7370 E38.2360
G1 X109.1714 E38.2626
G1 X108.6057 E38.2891
G1 X108.0400 E38.3157
G1 X107.4743 E38.3422
G1 X106.9086 E38.3688
G1 X106.3429 E38.3953
G1 X105.7772 E38.4219
G1 X105.2116 E38.4484
G1 X104.6459 E38.4750
G1 X104.0802 E38.5015
G1 X103.5352 Y101.3687 E38.5271
G1 X102.8808 Y101.2800 E38.5581
G1 X103.6240 Y102.0232 E38.6075
G1 Y102.5889 E38.6340
G1 X102.3151 Y101.2800 E38.7209
G1 X101.7494 E38.7475
G1 X103.6240 Y103.1545 E38.8719
G1 Y103.7202 E38.8984
G1 X101.2800 Y101.3762 E39.0540
G1 Y101.9419 E39.0806
G1 X103.6240 Y104.2859 E39.2362
G1 Y104.8516 E39.2627
G1 X101.2800 Y102.5076 E39.4183
G1 Y103.0733 E39.4449
G1 X103.6240 Y105.4173 E39.6005
G1 X110.1394 Y105.7102 F4800
G1 X109.9413 Y105.5120 E39.6136 F2100
G1 X109.6346 Y105.7711 E39.6325
G1 X109.6480 Y106.3501 E39.6597
G1 X108.8099 Y105.5120 E39.7153
G1 X108.2442 E39.7419
G1 X109.4023 Y106.6701 E39.8187
G1 X109.1565 Y106.9901 E39.8377
G1 X107.6785 Y105.5120 E39.9358
G1 X107.1128 E39.9623
G1 X108.9108 Y107.3100 E40.0817
G1 X108.6651 Y107.6300 E40.1006
G1 X106.5471 Y105.5120 E40.2412
G1 X105.9815 E40.2678
G1 X108.4194 Y107.9500 E40.4296
G1 X108.1737 Y108.2699 E40.4486
G1 X105.4158 Y105.5120 E40.6316
G1 X104.8501 E40.6582
G1 X107.9280 Y108.5899 E40.8625
G1 X107.6822 Y108.9099 E40.8814
G1 X104.2844 Y105.5120 E41.1070
G1 X103.7187 E41.1335
G1 X107.4365 Y109.2298 E41.3803
G1 X107.1908 Y109.5498 E41.3993
G1 X101.2800 Y103.6390 E41.7916
G1 Y104.2047 E41.8182
G1 X106.9451 Y109.8698 E42.1942
G1 X106.6994 Y110.1897 E42.2132
G1 X101.2800 Y104.7704 E42.5729
G1 Y105.3361 E42.5995
G1 X106.4536 Y110.5097 E42.9429
G1 X106.2079 Y110.8297 E42.9618
G1 X101.2800 Y105.9017 E43.2890
G1 Y106.4674 E43.3155
G1 X105.9622 Y111.1496 E43.6263
G1 X105.7165 Y111.4696 E43.6453
G1 X101.2800 Y107.0331 E43.9398
G1 Y107.5988 E43.9663
G1 X105.4708 Y111.7896 E44.2445
G1 X105.2250 Y112.1095 E44.2634
G1 X101.2800 Y108.1645 E44.5253
G1 Y108.7302 E44.5519
G1 X104.9793 Y112.4295 E44.7974
G1 X104.7336 Y112.7494 E44.8164
G1 X101.2800 Y109.2958 E45.0456
G1 Y109.8615 E45.0722
G1 X104.4879 Y113.0694 E45.2851
G1 X104.2422 Y113.3894 E45.3041
G1 X101.2800 Y110.4272 E45.5007
G1 Y110.9929 E45.5273
G1 X103.9964 Y113.7094 E45.7076
G1 X103.7507 Y114.0293 E45.7265
G1 X101.2800 Y111.5586 E45.8905
G1 Y112.1243 E45.9171
G1 X103.5050 Y114.3493 E46.0648
G1 X103.2593 Y114.6693 E46.0837
G1 X101.2800 Y112.6900 E46.2151
G1 Y113.2556 E46.2417
G1 X103.0136 Y114.9892 E46.3567
G1 X102.8815 Y115.4228 E46.3780
G1 X101.2800 Y113.8213 E46.4843
G1 Y114.3870 E46.5109
G1 X102.8815 Y115.9885 E46.6172
G1 Y116.5542 E46.6437
G1 X101.2800 Y114.9527 E46.7500
G1 Y115.5184 E46.7766
G1 X102.8815 Y117.1199 E46.8829
G1 Y117.6856 E46.9095
G1 X101.2800 Y116.0841 E47.0158
G1 Y116.6497 E47.0423
G1 X102.8815 Y118.2512 E47.1486
G1 E43.1486 F1800 ; e-retract 4
G1 X116.3505 Y114.1840 F4800
G1 E47.1486 F1800 ; e-engage 4
G4 P30
G1 X112.1638 Y109.9973 E47.4265 F2100
G1 X111.9186 Y110.3178 E47.4455
G1 X115.7848 Y114.1840 E47.7021
G1 X115.2191 E47.7287
G1 X111.6733 Y110.6382 E47.9641
G1 X111.4281 Y110.9586 E47.9830
G1 X114.6534 Y114.1840 E48.1971
G1 X114.0877 E48.2237
G1 X111.1828 Y111.2791 E48.4165
G1 X110.9376 Y111.5995 E48.4354
G1 X113.5221 Y114.1840 E48.6070
G1 X112.9564 E48.6336
G1 X110.6923 Y111.9199 E48.7838
G1 X110.4471 Y112.2404 E48.8028
G1 X112.3907 Y114.1840 E48.9318
G1 X111.8250 E48.9584
G1 X110.2018 Y112.5608 E49.0661
G1 X109.9566 Y112.8812 E49.0850
G1 X111.2593 Y114.1840 E49.1715
G1 X110.6936 E49.1981
G1 X109.7113 Y113.2017 E49.2633
G1 X109.4661 Y113.5221 E49.2822
G1 X110.1279 Y114.1840 E49.3262
G1 X109.3915 Y114.0133 E49.3616
G1 X108.9861 Y114.1735 E49.3821
G1 E45.3821 F1800 ; e-retract 4
;LAYER:1
M106 S255
G1 Z0.5050 F4800
G1 X106.7729 Y115.2640
G1 E49.3821 F1800 ; e-engage 4
G4 P30
G1 X115.2965 Y104.1273 E49.9545 F2385
G1 Y102.4960 E50.0211
G1 X104.7040 E50.4535
G1 Y104.4320 E50.5325
G1 X112.4827 E50.8500
G1 X103.9615 Y115.5281 E51.4210
G1 Y117.2000 E51.4893
G1 X115.7735 E51.9714
G1 Y115.2640 E52.0504
G1 X106.8729 E52.4137
G1 X106.7729 F4800
G1 X107.5828 Y114.8640
G1 X115.6965 Y104.2627 E52.9586 F2435
G1 Y102.0960 E53.0470
G1 X104.3040 E53.5120
G1 Y104.8320 E53.6237
G1 X111.6712 E53.9244
G1 X103.5615 Y115.3922 E54.4679
G1 Y117.6000 E54.5580
G1 X116.1735 E55.0728
G1 Y114.8640 E55.1844
G1 X107.6828 E55.5310
G1 X107.5828 F4800
G1 X108.3926 Y114.4640
G1 X116.0965 Y104.3983 E56.0484 F2486
G1 Y101.6960 E56.1587
G1 X103.9040 E56.6563
G1 Y105.2320 E56.8006
G1 X110.8597 E57.0845
G1 X103.1615 Y115.2563 E57.6004
G1 Y118.0000 E57.7124
G1 X116.5735 E58.2598
G1 Y114.4640 E58.4042
G1 X108.4926 E58.7340
G1 X108.3926 F4800
G1 E54.7340 F1800 ; e-retract 4
G1 X101.0000 Y119.0000 F4800
G1 E58.7340 F1800 ; e-engage 4
G4 P30
G1 X119.0000 E59.4687 F2328
G1 Y101.0000 E60.2034
G1 X101.0000 E60.9381
G1 Y118.9000 E61.6687
G1 Y119.0000 F4800
G1 X100.6000 Y119.4000
G1 X119.4000 E62.4360 F2405
G1 Y100.6000 E63.2034
G1 X100.6000 E63.9707
G1 Y119.3000 E64.7340
G1 Y119.4000 F4800
G1 X100.2000 Y119.8000
G1 X119.8000 E65.5340 F2482
G1 Y100.2000 E66.3340
G1 X100.2000 E67.1340
G1 Y119.7000 E67.9299
G1 Y119.8000 F4800
G1 X101.8457 Y101.2800
G1 X101.2800 Y101.8457 E67.9626 F3000
G1 Y102.4114 E67.9857
G1 X102.4114 Y101.2800 E68.0510
G1 X102.9771 E68.0741
G1 X101.2800 Y102.9771 E68.1720
G1 Y103.5427 E68.1951
G1 X103.5427 Y101.2800 E68.3257
G1 X104.0404 Y101.3480 E68.3462
G1 X104.6061 E68.3693
G1 X105.1718 E68.3924
G1 X105.7375 E68.4155
G1 X106.3032 E68.4386
G1 X106.8688 E68.4617
G1 X107.4345 E68.4848
G1 X108.0002 E68.5078
G1 X108.5659 E68.5309
G1 X109.1316 E68.5540
G1 X109.6973 E68.5771
G1 X110.2630 E68.6002
G1 X110.8286 E68.6233
G1 X111.3943 E68.6464
G1 X111.9600 E68.6695
G1 X112.5257 E68.6926
G1 X113.0914 E68.7156
G1 X113.6571 E68.7387
G1 X114.2228 E68.7618
G1 X114.7884 E68.7849
G1 X115.3541 E68.8080
G1 X115.9198 E68.8311
G1 X116.4650 Y101.3685 E68.8534
G1 X116.3765 Y102.0227 E68.8803
G1 X117.1192 Y101.2800 E68.9232
G1 X117.6849 E68.9463
G1 X116.3765 Y102.5884 E69.0218
G1 Y103.1541 E69.0449
G1 X118.2506 Y101.2800 E69.1531
G1 X118.7200 Y101.3762 E69.1726
G1 X116.3765 Y103.7198 E69.3079
G1 Y104.2854 E69.3310
G1 X118.7200 Y101.9419 E69.4662
G1 Y102.5076 E69.4893
G1 X115.2087 Y106.0189 E69.6920
G1 E65.6920 F1800 ; e-retract 4
G1 X103.6240 Y101.7644 F4800
G1 E69.6920 F1800 ; e-engage 4
G4 P30
G1 X101.2800 Y104.1084 E69.8273 F3000
G1 Y104.6741 E69.8504
G1 X103.6240 Y102.3301 E69.9857
G1 Y102.8958 E70.0088
G1 X101.2800 Y105.2398 E70.1441
G1 Y105.8055 E70.1672
G1 X103.6240 Y103.4615 E70.3025
G1 Y104.0272 E70.3256
G1 X101.2800 Y106.3712 E70.4609
G1 Y106.9369 E70.4840
G1 X103.6240 Y104.5929 E70.6193
G1 Y105.1586 E70.6424
G1 X101.2800 Y107.5025 E70.7777
G1 Y108.0682 E70.8008
G1 X103.8362 Y105.5120 E70.9483
G1 X104.4019 E70.9714
G1 X101.2800 Y108.6339 E71.1516
G1 Y109.1996 E71.1747
G1 X104.9676 Y105.5120 E71.3875
G1 X105.5333 E71.4106
G1 X101.2800 Y109.7653 E71.6561
G1 Y110.3310 E71.6792
G1 X106.0990 Y105.5120 E71.9574
G1 X106.6646 E71.9805
G1 X101.2800 Y110.8966 E72.2913
G1 Y111.4623 E72.3144
G1 X107.2303 Y105.5120 E72.6579
G1 X107.7960 E72.6810
G1 X101.2800 Y112.0280 E73.0571
G1 Y112.5937 E73.0802
G1 X108.3617 Y105.5120 E73.4889
G1 X108.9274 E73.5120
G1 X101.2800 Y113.1594 E73.9535
G1 Y113.7251 E73.9766
G1 X109.4931 Y105.5120 E74.4506
G1 X110.0587 E74.4737
G1 X101.2800 Y114.2908 E74.9805
G1 Y114.8564 E75.0036
G1 X109.1902 Y106.9463 E75.4602
G1 X107.3181 Y109.3841 F4800
G1 X101.2800 Y115.4221 E75.8087 F3000
G1 Y115.9878 E75.8318
G1 X105.4459 Y111.8219 E76.0722
G1 X103.5738 Y114.2597 F4800
G1 X101.2800 Y116.5535 E76.2047 F3000
G1 Y117.1192 E76.2277
G1 X102.8815 Y115.5177 E76.3202
G1 Y116.0834 E76.3433
G1 X101.2800 Y117.6849 E76.4357
G1 Y118.2506 E76.4588
G1 X102.8815 Y116.6491 E76.5513
G1 Y117.2148 E76.5743
G1 X101.3763 Y118.7200 E76.6612
G1 X101.9419 E76.6843
G1 X102.8815 Y117.7804 E76.7386
G1 X102.7276 Y118.5000 E76.7686
G1 X103.2933 E76.7917
G1 X103.8590 E76.8148
G1 X104.4247 E76.8379
G1 X104.9904 E76.8609
G1 X105.5561 E76.8840
G1 X106.1217 E76.9071
G1 X106.6874 E76.9302
G1 X107.2531 E76.9533
G1 X107.8188 E76.9764
G1 X108.3845 E76.9995
G1 X108.9502 E77.0226
G1 X109.5158 E77.0457
G1 X110.0815 E77.0687
G1 X110.6472 E77.0918
G1 X111.2129 E77.1149
G1 X111.7786 E77.1380
G1 X112.3443 E77.1611
G1 X112.9100 E77.1842
G1 X113.4756 E77.2073
G1 X114.0413 E77.2304
G1 X114.6070 E77.2535
G1 X115.1727 E77.2765
G1 X115.7384 E77.2996
G1 X116.3041 E77.3227
G1 X116.6498 Y118.7200 E77.3395
